X: 21
T:Alman
M:4/4
R:Alman
B:Thoinot Arbeau : Orchesographie, 1589
Z:Steve Mansfield March 2001
K:F
FF/F/ GG/G/ | A/F/G/A/ BB |
Bd c>B | A/F/G/A/ FF |
B/A/G/F/ B/A/G/F/ | Bd c>B |
A/F/G/A/ FF ||
FF GG | AA BB |
Bd cB | AG FF ||

